!!!COM: Corelli, Arcangelo
!!!OTL: Sonata da chiesa
!!!OPS: 3
!!!ONM: 12
!!!OMV: 1
!!!OMD: Grave
**kern	**fb	**kern	**kern	**kern
*part4	*part4	*part3	*part2	*part1
*staff4	*	*staff3	*staff2	*staff1
*clefF4	*	*clefF4	*clefG2	*clefG2
*k[f#c#]	*	*k[f#c#]	*k[f#c#]	*k[f#c#]
*D:	*	*D:	*D:	*D:
*M4/4	*	*M4/4	*M4/4	*M4/4
=1	=1	=1	=1	=1
2.A	.	2.A	2.cc#	2.ee
4A	.	4A	4cc#	4ee
=	=	=	=	=
4A	6 4 2	4A	2dd	4ff#
4G#X	6 5	4G#X	.	4ee
2A	.	2A	2cc#	2ee
=	=	=	=	=
[1AA	.	[1AA	1r	16r
.	.	.	.	16eLL
.	.	.	.	16a
.	.	.	.	16cc#JJ
.	.	.	.	16eeLL
.	.	.	.	16a
.	.	.	.	16cc#
.	.	.	.	16eeJJ
.	.	.	.	16aaLL
.	.	.	.	16a
.	.	.	.	16cc#
.	.	.	.	16eeJJ
.	.	.	.	16aaLL
.	.	.	.	16ee
.	.	.	.	16cc#
.	.	.	.	16eeJJ
=	=	=	=	=
1AA_	.	1AA_	1r	16aLL
.	.	.	.	16cc#
.	.	.	.	16ee
.	.	.	.	16aaJJ
.	.	.	.	16eeLL
.	.	.	.	16cc#
.	.	.	.	16a
.	.	.	.	16eJJ
.	.	.	.	16c#LL
.	.	.	.	16e
.	.	.	.	16a
.	.	.	.	16cc#JJ
.	.	.	.	16aLL
.	.	.	.	16e
.	.	.	.	16c#
.	.	.	.	16eJJ
=	=	=	=	=
1AA_	.	1AA_	16r	2A
.	.	.	16eLL	.
.	.	.	16a	.
.	.	.	16cc#JJ	.
.	.	.	16eeLL	.
.	.	.	16a	.
.	.	.	16cc#	.
.	.	.	16eeJJ	.
.	.	.	16aaLL	2r
.	.	.	16a	.
.	.	.	16cc#	.
.	.	.	16eeJJ	.
.	.	.	16aaLL	.
.	.	.	16ee	.
.	.	.	16cc#	.
.	.	.	16eeJJ	.
=	=	=	=	=
1AA_	.	1AA_	16aLL	1r
.	.	.	16cc#	.
.	.	.	16ee	.
.	.	.	16aaJJ	.
.	.	.	16eeLL	.
.	.	.	16cc#	.
.	.	.	16a	.
.	.	.	16eJJ	.
.	.	.	16c#LL	.
.	.	.	16e	.
.	.	.	16a	.
.	.	.	16cc#JJ	.
.	.	.	16aLL	.
.	.	.	16e	.
.	.	.	16c#	.
.	.	.	16eJJ	.
=	=	=	=	=
1AA_	.	1AA_	4A	16r
.	.	.	.	16ALL
.	.	.	.	16c#
.	.	.	.	16eJJ
.	.	.	4r	16aLL
.	.	.	.	16c#
.	.	.	.	16e
.	.	.	.	16aJJ
.	.	.	16r	4cc#
.	.	.	16ALL	.
.	.	.	16c#	.
.	.	.	16eJJ	.
.	.	.	16aLL	4r
.	.	.	16c#	.
.	.	.	16e	.
.	.	.	16aJJ	.
=	=	=	=	=
1AA_	.	1AA_	4cc#	16r
.	.	.	.	16c#LL
.	.	.	.	16e
.	.	.	.	16aJJ
.	.	.	4r	16cc#LL
.	.	.	.	16e
.	.	.	.	16a
.	.	.	.	16cc#JJ
.	.	.	16r	4ee
.	.	.	16c#LL	.
.	.	.	16e	.
.	.	.	16aJJ	.
.	.	.	16cc#LL	4r
.	.	.	16e	.
.	.	.	16a	.
.	.	.	16cc#JJ	.
=	=	=	=	=
1AA_	.	1AA_	4ee	16r
.	.	.	.	16eLL
.	.	.	.	16a
.	.	.	.	16cc#JJ
.	.	.	4r	16eeLL
.	.	.	.	16a
.	.	.	.	16cc#
.	.	.	.	16eeJJ
.	.	.	16r	4aa
.	.	.	16eLL	.
.	.	.	16a	.
.	.	.	16cc#JJ	.
.	.	.	16eeLL	4r
.	.	.	16a	.
.	.	.	16cc#	.
.	.	.	16eeJJ	.
=	=	=	=	=
1AA_	.	1AA_	4aa	16r
.	.	.	.	16aLL
.	.	.	.	16cc#
.	.	.	.	16eeJJ
.	.	.	4r	16aaLL
.	.	.	.	16ee
.	.	.	.	16cc#
.	.	.	.	16eeJJ
.	.	.	16r	4a
.	.	.	16aLL	.
.	.	.	16cc#	.
.	.	.	16eeJJ	.
.	.	.	16aaLL	4r
.	.	.	16ee	.
.	.	.	16cc#	.
.	.	.	16eeJJ	.
=	=	=	=	=
1AA_	.	1AA_	4a	16r
.	.	.	.	16cc#LL
.	.	.	.	16ee
.	.	.	.	16aaJJ
.	.	.	4r	16eeLL
.	.	.	.	16cc#
.	.	.	.	16a
.	.	.	.	16eJJ
.	.	.	16r	4c#
.	.	.	16cc#LL	.
.	.	.	16ee	.
.	.	.	16aaJJ	.
.	.	.	16eeLL	4r
.	.	.	16cc#	.
.	.	.	16a	.
.	.	.	16eJJ	.
=	=	=	=	=
1AA_	.	1AA_	4c#	16r
.	.	.	.	16eLL
.	.	.	.	16a
.	.	.	.	16cc#JJ
.	.	.	4r	16aLL
.	.	.	.	16e
.	.	.	.	16c#
.	.	.	.	16eJJ
.	.	.	16r	4A
.	.	.	16eLL	.
.	.	.	16a	.
.	.	.	16cc#JJ	.
.	.	.	16aLL	4r
.	.	.	16e	.
.	.	.	16c#	.
.	.	.	16eJJ	.
=	=	=	=	=
1AA_	.	1AA_	4A	8r
.	.	.	.	8AL
.	.	.	8r	8c#
.	.	.	8A	8eJ
.	.	.	8c#L	8r
.	.	.	8eJ	8c#L
.	.	.	8r	8e
.	.	.	8c#	8aJ
=	=	=	=	=
1AA_	.	1AA_	8eL	8r
.	.	.	8aJ	8eL
.	.	.	8r	8a
.	.	.	8e	8cc#J
.	.	.	8aL	8r
.	.	.	8cc#J	8aL
.	.	.	8r	8cc#
.	.	.	8a	8eeJ
=	=	=	=	=
1AA_	.	1AA_	8cc#L	8r
.	.	.	8eeJ	8cc#L
.	.	.	8r	8ee
.	.	.	8cc#	8aaJ
.	.	.	8eeL	8r
.	.	.	8aaJ	8eeL
.	.	.	8r	8aa
.	.	.	8ee	8ccc#J
=	=	=	=	=
1AA]	.	1AA]	8aaL	8aaL
.	.	.	8ccc#	8ee
.	.	.	8aa	8cc#
.	.	.	8eeJ	8aJ
.	.	.	8cc#L	8eeL
.	.	.	8ee	8aa
.	.	.	8cc#	8ee
.	.	.	8aJ	8cc#J
=	=	=	=	=
4AA	#4\ 2	4AA	4d#X	4f#
4GG#X	6	4GG#X	2r	8bbL
.	.	.	.	8eeJ
4FF#	7	4FF#	.	4.aa
4BB	7 #	4BB	[4ff#	.
.	.	.	.	(16gg#XLL
.	.	.	.	16ff#JJ)
=	=	=	=	=
4E	9 #	4E	4ff#]	2.gg#X
4EE	8	4EE	8eeL	.
.	.	.	8ddniJ	.
4AA	#r7	4AA	8cc#L	.
.	.	.	8dd#XJ	.
4AA#X	nr7 5	4AA#X	[4ee	4ggn
=	=	=	=	=
2BB	5 4	2BB	4ee]	2ff#
.	#	.	4dd#X	.
2EE	#	2EE	2ee	2ee
==	==	==	==	==
*-	*-	*-	*-	*-
!!!system-decoration: [{s1,s2},s3,s4]
!!!YEM: CC BY-NC-SA 4.0; CCARH; DCML
!!!RDF**kern: i = editorial accidental